X:1
T:Meeting the Waters
L:1/4
M:2/2
I:linebreak $
K:A
V:1 treble nm="Voice" snm="Voice"
V:1
 E2 |"A" A2 A c | E2 A3/2 G/ | F A F D | E2 A B | c e E e | d c B A |"Bm" c3 d | B2 E F |$ A2 A c | %10
 E2 A3/2 G/ | F A F D | E2 A3/2 B/ | c e d c | d E G B | A2 A3/2 A/ | A2 e3/2 d/ |]$ c2 e3/2 d/ | %18
 c e c E | F A d F | E2 e3/2 d/ | c e E e | d c B A | c2 B2 | B2 e3/2 d/ |$ c2 e3/2 d/ | c e c A | %27
 F A d F | E2 A3/2 B/ | c e d c | d E G B | A2 A3/2 A/ | A2 |] %33
